X:1
T:Gran Jota de Concierto
T:Gran Jota de Concierto
T:Francisco Tárrega (1852 - 1909)
C:Francisco Tárrega
%%score ( 1 2 3 )
L:1/8
Q:1/4=65
M:3/4
K:C
V:1 treble-8 nm="Classical Guitar" snm="Guit."
V:2 treble-8 
V:3 treble-8 
V:1
"^Introducción"!ff!"^V" !arpeggio![Acec']2 !arpeggio![Adfb]2"^V" !arpeggio![Acea]2 | %1
"^II" !arpeggio![Bda]>^g{/g} e'-e'/4(d'/4b/4)g/4 e2 | %2
"^VIII" !arpeggio![Bd^gd']2 !arpeggio![Aeac']2 !arpeggio![Bdgb]2 | %3
"^V" !arpeggio![Aceb]>a{/a} e'(b/4a/4)"^V"e/4c/4 A2 | [eae']2 [eae'][eae'] [eae'][eae'] | %5
 [^fae']2 [fa^d']2 z2 |"^IX" [ead']>[ead'] [e^gd'][egd'] [fgd'][egd'] | [ead']2 [eac']2 z2 | %8
 [eac']>[eac'] [eac'][eac'] [eac'][eac'] | [fac']2 [fab]2 z2 | [c^fa]>[cfa] [cfa][cfa] [cfa][cfa] | %11
 [Be^g]2 [^GBe]2 [Acf]2 | [^A^c^f]2 [Bdg]2 [Bd^g]2 |"^V" [cea]4"^III" [Bdg]2 | %14
"^I" [Acf]2 [Ace]2 [Ac^d]2 | [^GBe]2 [B,G]2 [CA]2 | [^C^A]2 [DB]2 [=C=A]2 | [B,G]4 [A,F]2 | %18
 [B,E]4!f!!-(!{/D} !-)!E2 | E,4!-(!{/^D} !-)!E2 |[Q:1/4=180] E,2 B,/E/^G/B/ e/^g/!-(!b/!-)!e'/ | %21
"_m. izq." !fermata!e'2 (3(d'e')d' (3(^c'd'^c') (3(b^c'b) (3(aba) (3(^ga^g) (3(^f^g^f) (3(e^fe) (3ded (3(^cd^c) (3(B^cB) (3ABA | %22
 (3(^GA^G) (3^F^G^F (3(E^FE) (3(DED) (3^CD^C (3(B,^CB,) (3(A,B,A,) (3^G,A,^G, ^F,/^G,/^F,/E,/ =F,2 !fermata!E,4 | %23
 E,/F,/^F,/^G,/^G,/A,/^A,/B,/ C/^C/D/^D/E/F/^F/^G/ (9:8:9^G/A/^A/B/c/^c/d/^d/e/ | %24
!f! (3^e/^f/g/^g (3g/a/^a/b (3b/c'/^c'/!fermata!d' | %25
!p! (3(^e/^f/g/)^g (3(g/a/^a/)b (3(b/c'/^c'/)!fermata!d' | %26
!f! (3^g/a/b/^b (3b/c'/^c'/d' (3d'/e'/^e'/!fermata!f' | %27
!p! (3(^g/a/b/)^b (3(b/c'/^c'/)d' (3(d'/e'/^e'/)!fermata!f' | %28
 e'-e'/4(d'/4b/4)^g/4 e/(d/B/)^G/ (E/D/)B,/^G,/ | z2 z2!ff!"^VII" !arpeggio!!fermata![Bd^ge']2 || %30
[K:A][Q:1/4=210]"^Jota""^II" [Aca]2 [Aca]2 [Aca]2 |: [EAca]2{/d} cB cd | (ed) cB A2 | %33
"^II" [EAca]2{/d} cB cd | ef ga b2 | !arpeggio![EGBdb]2{/c'} b^a bc' | (d'c') ba g2 | %37
 z2{/f} e^d e^e | (gf) dB A2 ::"^I""^II" [Aca]2 EA ce |xc' (3(d'c')b (3(c'b)a | %41
 (3(ba)g (3(ag)f (3(gf)e | (3(fe)d (3(ed)c B2 | z2 EG Be |xb (3(c'b)a (3(ba)g | %45
 (3(ag)f (3(gf)e (3(fe)d | (3(ed)c (3(dc)B A2 ::"^II" z2 [eec']2 [deb]2 | z2 [cea]2 [Beg]2 | %49
 z2 [Aef]2 [Gee]2 | z2"^II" !arpeggio![EBdf]2 !arpeggio![EBdg]2 | z2 [deb]2 [cea]2 | %52
 z2 [Beg]2 [Aef]2 | z2 [Aee]2 [Fde]2 | z2"^II" !arpeggio![EBdg]2 !arpeggio![EBda]2 :: %55
 [EAca]2 z2 e2 |"^III" a2 a2 a2 | a4 a2 | a2 g2 a2 | b4 g2 |{/b} a2 g2 f2 | g4 [cde]2 | %62
 [def]2 [cde]2 [Bde]2 | [Ace]4 E2 | A2 A2 A2 | A4 A2 | A2 G2 A2 | B4 G2 |{/B} A2 G2 F2 | %69
 G4"^II" [Ec]2 |{/e} [Fd]2 [Ec]2 [DB]2 :| z2 [EAca]2 [EAcg]2 |:"^IV" a2"^II"({fg)} [EAcf]2 [EAe]2 | %73
 c2 [EAca]2 [EAcg]2 | a2({fg)} [EAcf]2 [EAe]2 | d2 [EBdg]2 [EBdf]2 | g2({fg)} [EBdf]2 [EAe]2 | %77
 f2{/g} [EBdf]2 [EBe]2 | f2 [EBe]2 [EBd]2 |1 c2 [EAca]2 [EAcg]2 ::2"^V" c2 (3Ace (3Bde || %81
 (3cee (3dfe (3cee | z2 (3fae (3ege | (3dfe (3cee (3Bde | z2 (3GBe (3Ace | (3Bde (3cee (3Bde | %86
 z2 (3ege (3dfe | (3cee (3Bde (3Ace :|[Q:1/4=65]"^VI" z2!-(!{/E} B3 B | z2 [deg]2 [deg]2 | %90
 BA G2 F2 | F2"^II" [FAd]2 [EAc]2 | z2!-(!{/E} A3 A | z2 [cee]2 [cee]2 | AG F2 E2 | %95
 E2 [EAc]2 [DGB]2 | z2!-(!{/E} B3 B | z2 [deg]2 [deg]2 | BA G2 F2 | F2"^II" [FAd]2 [EAc]2 |: %100
[Q:1/4=210]"^VII" z2 [Ac]4 | z2 G2 [Ac]2 | cd ef ga |"^II" a2 [EBdg]2 [EBdf]2 | g2 [DGB]2 [EAc]2 | %105
"^II" z2 [EAc]2 [EBd]2 | z2 [Ge]3 [Fd] |({de)} [Fd]4"^II" [Ec]2 ::"^VIII"xc'xc' ec' |xbxb eb | %110
xaxa ea | z2 [cea]2 [Beg]2 |xbxb eb |xaxa ea |xgxg eg | z2 [Gdf]2 [Ace]2 ::"^IX" (A,C)"^II" EA ce | %117
 (ga) (ba) (ga) | (^bc') (d'c') (bc') | (e'd') bg e2 | z2 (fe) ^de | (d'b) ge d2 | z2 e2 g2 | %123
 (ba) ec"^VII" !fermata!a2 ::"^X""_imitation Fagot" !^!C3 !^!D !^!E2 | !^!A2 !^!A2 !^!B2 | %126
({GA)} !^!G3 !^!F !^!E2 | !^!A2 !^!A2 !^!B2 |({GA)} !^!G3 !^!F !^!E2 | !^!B,2 !^!G,2 !^!E,2 | %130
 !^!B,3 !^!C !^!D2 | !^!G2 !^!G2 !^!A2 |({FG)} !^!F3 !^!E !^!D2 | !^!G2 !^!G2 !^!A2 | %134
({FG)} !^!F3 !^!E !^!D2 | !^!E,2 !^!A,2 !^!E,2 ::"^XI""_natural" z2 [eec']2 [deb]2 | %137
 z2 [cea]2 [Beg]2 | z2 [Aef]2 [Gee]2 | z2"^II" !arpeggio![EBdf]2 !arpeggio![EBdg]2 | %140
 z2 [deb]2 [cea]2 | z2 [Beg]2 [Aef]2 | z2 [Aee]2 [Fde]2 | %143
 z2"^II" !arpeggio![EBdg]2 !arpeggio![EBda]2 ::"^XII""_Tambora""^II" c2 a2 g2 | a2({fg)} f2 e2 | %146
 c2 a2 g2 | a2({fg)} f2 e2 | d2 g2 f2 | g2({fg)} f2 e2 | d2{/g} f2 e2 | f2 e2 d2 :: %152
"^XIII" c2 c2 e2 | f2 f2 e2 | c2 e2 a2 | a2 a2 g2 | g2 g2 d2 | e2 e2 d2 | B2 [Bc]2 d2 |1 %159
 f2 f2 e2 :|2 e2 f2 g2 |:"^XIV" a2 a2 a2 | a2"_apianando" g2 g2 | g2 f2 f2 | e2 f2 a2 | g2 g2 g2 | %166
 g2"_dim. hasta perdese" f2 f2 |!>(! f2 e2 e2!>)! |!>(! e2 f2 g2!>)! :| a6 |: %170
"^XV"!f!"_VII" z2 [cea]2 [cea]2 |"_VII" z2 [cea]2 [cea]2 |"_IV" z2 [cea]2 [cea]2 | %173
"_VII" z2 [cea]2 [cea]2 |"_IV" z2 [cea]2 [cea]2 |"_III" z2 [cea]2 [cea]2 | %176
"_IV" z2 [cea]2"_VII" z2 |"_IV" z2 [Bde]2 [Bd^e]2 | [Bdf]2 [Bd=f]2 [Bde]2 |"_VII" x6 |"_XII" x6 | %181
"_IX" z2 [Bde]2 [Bd^e]2 | [Bdf]2 [Bd=f]2 [Bde]2 |"_VII" x6 |"_XII" x6 |1"_VII" z2 [Ace]2 [Ac^e]2 | %186
 [Acf]2 [Ac=f]2 [Ace]2 ::2"^XVI""^II" [Aca]2{/d} cB cd || e2 [Acf]2 [Acg]2 | [Aca]2{/d} cB cd | %190
 e2 [Acf]2 [Aca]2 | [Bdg]2 (d'c') ba | g2 (ba) gf | e2 (gf) ed | cd ed cB ::"^XVII""^II" A2 EA ce | %196
 (af) e(c' a)e | (e'c') e(a' f')e | (g'e') e(f' d')e | z2 [Bdgd']2"^VII" [Bdgb]2 | z2 EG de | %201
 (bg) e(d' b)e | (f'd') e(a' f')e | (g'e') e(f' d')e | z2"^V" [cec']2 [cea]2 :| %205
 z2 z2"^XVIII"!-(!{/f} !-)!e2 |:!-(!{/b} !-)!a2!-(!{/b} !-)!a2!-(!{/c'} !-)!b2 | %207
!-(!{/d'} !-)!c'4!-(!{/c'} !-)!b2 |!-(!{/d'} !-)!c'2!-(!{/c'} !-)!b2!-(!{/b} !-)!a2 | %209
!-(!{/c'} !-)!b4!-(!{/a} !-)!g2 |!-(!{/b} !-)!a2!-(!{/b} !-)!g2!-(!{/b} !-)!f2 |1 %211
!-(!{/b} !-)!g4!-(!{/b} !-)!a2 |!-(!{/c'} !-)!b2!-(!{/b} !-)!a2!-(!{/b} !-)!f2 | %213
!-(!{/g} !-)!e4!-(!{/f} !-)!e2 :|2!-(!{/b} !-)!g4!-(!{/b} !-)!e2 || %215
!-(!{/b} !-)!f2!-(!{/b} !-)!e2!-(!{/b} !-)!d2 |"^XIX"!-(!{/b} !-)!c2"^II" a2 g2 | a2({fg)} f2 e2 | %218
 c2 a2 g2 | a2({fg)} f2 e2 | d2 g2 f2 | g2({fg)} f2 e2 | d2{/g} f2 e2 | f2 e2 d2 | [Ac]2 z2 e2 |: %225
[Q:1/4=180]"^XX" (a/c'/a/)e/ (a/c'/a/)e/ (b/d'/b/)e/ | (c'/e'/c'/)e/ (c'/e'/c'/)e/ (^b/^d'/b/)e/ | %227
 (d'/f'/d'/)e/ (c'/e'/c'/)e/ (a/c'/a/)e/ | (b/d'/b/)e/ (b/d'/b/)e/ (b/d'/b/)e/ | %229
 (g/b/g/)e/ (g/b/g/)e/ (a/c'/a/)e/ | (b/d'/b/)e/ (b/d'/b/)e/ (^a/c'/a/)e/ | %231
 (c'/e'/c'/)e/ (b/d'/b/)e/ (g/b/g/)e/ | (a/c'/a/)e/ (a/c'/a/)e/ (a/c'/a/)e/ :| %233
 (a/c'/a/)e/ A,/E/A/c/ e/a/c'/e'/ |[Q:1/4=115] a'4 e'e' | e'2 e'2 e'2 | e'4 ee | e2 e2 e2 | %238
 !fermata!e4!p! [Bd]2 ||"^XXI""^II" [dg]2 [df]2 [dg]2 | [ce]2 [df]4 | [Bd]2 [ce]4 | [Ac]4 [ce]2 | %243
"^II" [ca]2 [cg]2 [ca]2 | [cf]2 [cg]4 | [ce]2 [df]4 | [Bd]6 |"^II" [dg]2 [df]2 [dg]2 | %248
 [ce]2 [df]4 | [Bd]2 [ce]4 |:[Q:1/4=140]"^XXII"!mf! [Ac]6 |"^II" [ca]2 [cg]2 [ca]2 | [cf]2 [cg]4 | %253
 [ce]2 [df]4 | [Bd]6 |"^II" [dg]2 [df]2 [dg]2 | [ce]2 [df]4 | [Bd]2 [ce]4 :| %258
[Q:1/4=210]!f! [Ac]2 [Ac]2!-(!{/[Ac]} !-)![Bd]2 |: %259
"^XXIII"!-(!{/[Bd]} !-)![^B^d]2!-(!{/[Bd]} !-)![=df]2!-(!{/[df]} !-)![ce]2 | %260
!-(!{/[ce]} !-)![Ac]2!-(!{/[Ac]} !-)![ce]2!-(!{/[ce]} !-)![fa]2 | %261
!-(!{/[fa]} !-)![ac']2!-(!{/[ac']} !-)![gb]2!-(!{/[gb]} !-)![fa]2 | %262
!-(!{/[fa]} !-)![eg]2!-(!{/[eg]} !-)![bd']2!-(!{/[bd']} !-)![gb]2 | %263
!-(!{/[gb]} !-)![ac']2!-(!{/[ac']} !-)![fa]2!-(!{/[fa]} !-)![gb]2 | %264
!-(!{/[gb]} !-)![eg]2!-(!{/[eg]} !-)![fa]2!-(!{/[fa]} !-)![df]2 | %265
!-(!{/[df]} !-)![ce]2!-(!{/[ce]} !-)![df]2!-(!{/[df]} !-)![Bd]2 |1 %266
!-(!{/[Bd]} !-)![Ac]2 [Ac]2!-(!{/[Ac]} !-)![Bd]2 :|2!-(!{/[Bd]} !-)![Ac]2"^XXIV" (3Ace (3Gce |: %268
 (3Ace (3Fce (3Ece | (3Cce (3Dce (3^Dce | (3Ece (3Fce (3Gde |(3xde (3Bde (3Gde | %272
 (3Ede (3Fde (3Dde | (3B,de (3Cde (3Dde | (3Fde (3Gde (3Ede |1(3xce (3Ace (3Gce ::2 %276
"^XXV" (3A,ce (3Cce (3Dce || (3Ece (3Fce (3Gce |({AB)} (3Ace (3Fce (3Gce | %279
 (3Ede (3Fde({DE)} (3Dde | (3E,de (3B,de (3Cde | (3Dde (3Ede (3Fde | (3Gde (3Ede({DE)} (3Dde | %283
 (3Cce (3A,ce (3E,ce :| z2 [EAc]2 e2 |:"^XXVI" a4 c'2 | e'2 c'2 a2 | b2 c'2{/e'} d'2- | d'4 b2 | %289
{/d'} c'4 a2 | b2 c'2 a2 |{/c'} b2 g2 e2- | e2 e4 :|"^XXVII" f4 g2 | a2 b2 g2 | a2 b2 c'2- | %296
 c'2 b2 c'2 |{/e'} d'2 f2 b2 |({ab)} a2 g4 | b4 a2- | a2 e4 | f4 g2 | a2 b2 g2 | a2 b2 c'2- | %304
 c'2 b2 c'2 |{/e'} d'2 f2 b2 |({ab)} a2 g4 | b4 a2- | a4 z2 || %309
"^XXVIII""^Para hacer el tamborse se cruza\nla 6 y 5 cuerda en la division 9.\n" F2 FF F2 | %310
 F2 FF FF | F2 FF F2 | F2 FF FF | F2 FF F2 | F2 FF FF | F2 FF F2 | z2 z2 e2 | a4 c'2 | e'2 c'2 a2 | %319
 b2 c'2 d'2- | d'4 b2 | c'4 a2 | b2 c'2 a2 | b2 g2 e2- | e4 e2 | a4 c'2 | e'2 c'2 a2 | %327
 b2 c'2 d'2- | d'4 b2 | c'4 a2 | b2 c'2 g2 | a6- | a6 || %333
 F2 FF"^Ad libitum y como si se alejara.\n" F2 | F2 FF FF | F2 FF F2 | F2 FF FF | F2 FF F2 | %338
 F2 FF F2 |:"^XXIX" z2 [eec']2 [deb]2 | z2 [cea]2 [Beg]2 | z2 [Aef]2 [Gee]2 | %342
 z2"^II" !arpeggio![EBdf]2 !arpeggio![EBdg]2 | z2 [deb]2 [cea]2 | z2 [Beg]2 [Aef]2 | %345
 z2 [Aee]2 [Fde]2 | z2"^II" !arpeggio![EBdg]2 !arpeggio![EBda]2 :| %347
[Q:1/4=180]"^XXX" z2 c/a/a/a/ B/g/g/g/ |x/g/g/g/ d/b/b/b/ c/a/a/a/ | %349
x/a/a/a/ f/d'/d'/d'/ e/c'/c'/c'/ |x/c'/c'/c'/ a/f'/f'/f'/ g/e'/e'/e'/ | %351
x/e'/e'/e'/ g/e'/e'/e'/ f/d'/d'/d'/ |x/d'/d'/d'/ f/d'/d'/d'/ e/c'/c'/c'/ | %353
x/c'/c'/c'/ f/d'/d'/d'/ e/c'/c'/c'/ |x/b/b/b/ d/b/b/b/ c/a/a/a/ |: %355
"^XXXI"x/a/a/a/ c/a/a/a/ d/b/b/b/ |x/c'/c'/c'/ e/c'/c'/c'/ =g/c'/c'/c'/ | %357
x/c'/c'/c'/ e/b/b/b/ =g/c'/c'/c'/ |x/e'/e'/e'/ f/e'/e'/e'/ a/e'/e'/e'/ | %359
x/d'/d'/d'/ f/d'/d'/d'/ a/d'/d'/d'/ |x/c'/c'/c'/ c/e/e/e/ e/c'/c'/c'/ | %361
x/c'/c'/c'/ f/d'/d'/d'/ e/c'/c'/c'/ |x/b/b/b/ d/b/b/b/ c/a/a/a/ :| %363
[Q:1/4=210]"^XXXII""^Piu mosso." z2 Ac ea | c'e' (f'e') c'a |xa (e'd') af |xa (d'c') ae | %367
"^VII"xg (c'b) gd |"^V"xe (ba) ec |xc (fe) cA |"^II"xA (ed) AF |xA (dc) AE |xG (cB) GD | %373
"^VII"xE (BA) FC | (A,C) EA ce | (ae) c'a (e'c') | z2 [aa']4 | !fermata!A6 |] %378
V:2
 A,2 A,2 A,2 | [E,B,E]2 z4 | [E,E]2 [E,E]2 [E,E]2 | A,2 z4 | c2 cc cc | c2 B2 z2 | B>B BB BB | %7
 A2 A2 z2 | A>A AA AA | D2 D2 z2 | ^D>D DD DD | E,E, E,E, E,E, | E,E, E,E, E,E, | E,E, E,E, E,E, | %14
 E,E, E,E, E,E, | E,E, E,E, E,E, | E,E, E,E, E,E, | E,E, E,E, E,E, | E,6 | x6 | x6 | x24 | %22
 x18 !fermata!=F4 x2 | x12 | x6 | x6 | x6 | x6 | x6 | E,4 [E,E]2 ||[K:A] A,2 C2 E2 |: A,6 | A,6 | %33
 A,6 | A,6 | E,6 | E,6 | A,6 | z6 :: A,6 | A,6 | A,6 | A,6 | E,6 | E,6 | E,6 | E,6 :: A,6 | A,6 | %49
 A,6 | E,6 | E,6 | E,6 | E,6 | E,6 :: A,6 | A,6 | A,6 | A,6 | E,6 | E,6 | E,6 | E,6 | A,6 | A,6 | %65
 A,6 | A,6 | E,6 | E,6 | E,6 | E,6 :| A,6 |: A,6 | A,6 | E,6 | B,6 | E,6 | D6 | E,6 |1 A,6 ::2 %80
 A,6 || A,6 | A,6 | A,6 | E,6 | E,6 | E,6 | E,6 :| A,2 z2 z2 | E,6 | E,6 | A,6 | A,6 | A,6 | A,6 | %95
 E,6 | E,6 | E,6 | E,6 | A,6 |: A,6 | A,6 | A,6 | E,6 | E,6 | E,6 | E,6 | A,6 :: A,6 | A,6 | A,6 | %111
 A,6 | E,6 | E,6 | E,6 | A,6 :: x6 | A,6 | A,6 | E,6 | E,6 | E,6 | E,6 | A,6 :: x6 | x6 | x6 | x6 | %128
 x6 | x6 | x6 | x6 | x6 | x6 | x6 | x6 :: A,6 | A,6 | A,6 | E,6 | E,6 | E,6 | E,6 | E,6 :: %144
 [A,EA]2 [A,EAc]2 [A,EAc]2 | [A,EAc]2 [A,EAc]2 [A,EA]2 | [A,EA]2 [A,EAc]2 [A,EAc]2 | %147
 [A,EAc]2 [A,EAc]2 [A,EA]2 | [E,B,EB]2 [E,B,EBd]2 [E,B,EBd]2 | [E,B,EBd]2 [E,B,EBd]2 [E,B,EB]2 | %150
 [E,B,EB]2 [E,B,EBd]2 [E,B,EB]2 | [E,B,EBd]2 [E,B,EB]2 [E,B,EB]2 :: [A,EA]2 [A,EA]2 [A,EA]2 | %153
 [A,EAc]2 [A,EAc]2 [A,EA]2 | [A,EA]2 [A,EA]2 [A,EAc]2 | [E,A,EBd]2 [E,A,EBd]2 [E,A,EBd]2 | %156
 [E,A,EBd]2 [E,A,EBd]2 [E,A,EB]2 | [E,A,EB]2 [E,A,EB]2 [E,A,EB]2 | [E,A,E]2 [E,A,E]2 [E,A,EB]2 |1 %159
 [E,A,EBd]2 [E,A,EBd]2 [E,A,EB]2 :|2 [E,A,EBd]2 [E,A,EBd]2 [E,A,EBd]2 |: %161
 [A,EAc]2 [A,EAc]2 [A,EAc]2 | [A,EAc]2 [A,EAc]2 [A,EAc]2 | [A,EAc]2 [A,EAc]2 [A,EAc]2 | %164
 [A,EA]2 [A,EAc]2 [A,EAc]2 | [E,A,EBd]2 [E,A,EBd]2 [E,A,EBd]2 | [E,A,EBd]2 [E,A,EBd]2 [E,A,EBd]2 | %167
 [E,A,EBd]2 [E,A,EB]2 [E,A,EB]2 | [E,A,EB]2 [E,A,EBd]2 [E,A,EBd]2 :| [A,EAc]6 |: a6 | e6 | c'6 | %173
 a6 | f'6 | e'6 | c'4 a2 | g6- | g6 | f'2"_XII" e'2"_VII" d'2 | b2"_IX" g2"_VII" e2 | g6- | g6 | %183
 f'2"_XII" e'2"_VII" d'2 | b2"_IX" g2"_VII" e2 |1 a6- | a6 ::2 A,6 || A,6 | A,6 | A,6 | E,6 | E,6 | %193
 E,6 | E,6 :: A,6 | A,6 | A,6 | A,6 | E,6 | E,6 | E,6 | E,6 | E,6 | A,6 :| A,6 |: A,6 | A,6 | A,6 | %209
 E,6 | E,6 |1 E,6 | E,6 | A,6 :|2 E,6 || E,6 | A,6 | A,6 | A,6 | E,6 | B,6 | E,6 | B,6 | E,6 | %224
 A,6 |: A,6 | A,6 | A,6 | E,6 | E,6 | E,6 | E,6 | A,6 :| A,2 A,2 z2 | a4 e2 | e2 e2 e2 | e4 E2 | %237
 E2 E2 E2 | !fermata![E,E]6 || E,6 | E,6 | E,6 | A,2 C2 E2 | A,6 | A,6 | A,6 | E,2 G,2 B,2 | E,6 | %248
 E,6 | E,6 |: A,2 C2 E2 | A,6 | A,6 | A,6 | E,2 G,2 B,2 | E,6 | E,6 | E,6 :| A,6 |: A,6 | A,6 | %261
 A,6 | E,6 | E,6 | E,6 | E,6 |1 A,6 :|2 A,2 A2 G2 |: A2 F2 E2 | C2 D2 ^D2 | E2 F2 G2 | E,6 | %272
 E2 F2 D2 | B,2 C2 D2 | F2 G2 E2 |1 A,6 ::2 A,2 C2 D2 || E2 F2 G2 | A2 F2 G2 | E2 F2 D2 | %280
 E,2 B,2 C2 | D2 E2 F2 | G2 E2 D2 | C2 A,2 E,2 :| A,6 |: A,6 | A,6 | E,6 | E,6 | A,6 | A,6 | E,6 | %292
 E,6 :| E,6 | E,6 | A,6 | A,6 | D6 | E,6 | A,6 | E,6 | E,6 | E,6 | A,6 | A,6 | D6 | E,6 | A,6 | %308
 A,4 z2 || x6 | x6 | x6 | x6 | x6 | x6 | x6 | F4 F2 | F4 F2 | F4 F2 | F4 F2 | F4 F2 | F4 F2 | %322
 F4 F2 | F4 F2 | F4 F2 | F4 F2 | F4 F2 | F4 F2 | F4 F2 | F4 F2 | F4 F2 | F2 FF F2 | F2 FF FF || %333
 x6 | x6 | x6 | x6 | x6 | x6 |: A,6 | A,6 | A,6 | E,6 | E,6 | E,6 | E,6 | E,6 :| x2 c2 B2 | %348
 x2 d2 c2 | x2 f2 e2 | x2 a2 g2 | x2 g2 f2 | x2 f2 e2 | x2 f2 e2 | x2 d2 c2 |: x2 c2 d2 | %356
 x2 e2 =g2 | x2 e2 =g2 | x2 f2 a2 | x2 f2 a2 | x2 c2 e2 | x2 f2 e2 | x2 d2 c2 :| A,6 | z6 | f6 | %366
 e6 | d6 | c6 | A6 | F6 | E6 | D6 | C6 | x6 | x6 | !fermata!A,6 | !fermata![A,CE]6 |] %378
V:3
 x6 | x6 | x6 | x6 | x6 | x6 | x6 | x6 | x6 | x6 | x6 | x6 | x6 | x6 | x6 | x6 | x6 | x6 | x6 | %19
 x6 | x6 | x24 | x21 !fermata!E2 x | x12 | x6 | x6 | x6 | x6 | x6 | x6 ||[K:A] x6 |: x6 | x6 | x6 | %34
 x6 | x6 | x6 | x6 | x6 :: x6 | x6 | x6 | x6 | x6 | x6 | x6 | x6 :: x6 | x6 | x6 | x6 | x6 | x6 | %53
 x6 | x6 :: x6 | x6 | x6 | x6 | x6 | x6 | x6 | x6 | x6 | x6 | x6 | x6 | x6 | x6 | x6 | x6 :| x6 |: %72
 x6 | x6 | x6 | x6 | x6 | x6 | x6 |1 x6 ::2 z2 x2 x2 || c2 d2 c2 | x2 f2 e2 | d2 c2 B2 | x2 G2 A2 | %85
 B2 c2 B2 | x2 e2 d2 | c2 B2 A2 :| x6 | B6 | x6 | x6 | x6 | A6 | x6 | x6 | x6 | B6 | x6 | x6 |: %100
 x2 E2 F2 | x6 | x6 | x6 | x6 | x6 | x6 | x6 :: x2 e4 | x2 d4 | x2 c4 | x6 | x2 d4 | x2 c4 | %114
 x2 B4 | x6 :: x6 | x6 | x6 | x6 | x6 | x6 | x6 | x6 :: x6 | x6 | x6 | x6 | x6 | x6 | x6 | x6 | %132
 x6 | x6 | x6 | x6 :: x6 | x6 | x6 | x6 | x6 | x6 | x6 | x6 :: x6 | x6 | x6 | x6 | x6 | x6 | x6 | %151
 x6 :: x6 | x6 | x6 | x6 | x6 | x6 | x6 |1 x6 :|2 x6 |: x6 | x6 | x6 | x6 | x6 | x6 | x6 | x6 :| %169
 x6 |: x6 | x6 | x6 | x6 | x6 | x6 | x6 | x6 | x6 | x6 | x6 | x6 | x6 | x6 | x6 |1 x6 | x6 ::2 %187
 x6 || x6 | x6 | x6 | x6 | x6 | x6 | x6 :: x6 | x6 | x6 | x6 | x6 | x6 | x6 | x6 | x6 | x6 :| x6 |: %206
 x6 | x6 | x6 | x6 | x6 |1 x6 | x6 | x6 :|2 x6 || x6 | z2 [EAc]2 [EAc]2 | z2 [EAc]2 [EA]2 | %218
 z2 [EAc]2 [EAc]2 | z2 [EAc]2 [EA]2 | z2 [EBd]2 [EBd]2 | z2 [EBd]2 [EB]2 | z2 [EBd]2 [EB]2 | %223
 z2 [EB]2 [EB]2 | x6 |: x6 | x6 | x6 | x6 | x6 | x6 | x6 | x6 :| x6 | x6 | x6 | x6 | x6 | x6 || %239
 z2 E2 E2 | z2 E2 E2 | z2 E2 E2 | x6 | z2 E2 E2 | z2 E2 E2 | z2 E2 E2 | x6 | z2 E2 E2 | z2 E2 E2 | %249
 z2 E2 E2 |: x6 | z2 E2 E2 | z2 E2 E2 | z2 E2 E2 | x6 | z2 E2 E2 | z2 E2 E2 | z2 E2 E2 :| x6 |: %259
 x6 | x6 | x6 | x6 | x6 | x6 | x6 |1 x6 :|2 x6 |: x6 | x6 | x6 | x2 B2 G2 | x6 | x6 | x6 |1 %275
 x2 A2 G2 ::2 x6 || x6 | x6 | x6 | x6 | x6 | x6 | x6 :| x6 |: x6 | x6 | x6 | x6 | x6 | x6 | x6 | %292
 x6 :| x6 | x6 | x6 | x6 | x6 | x6 | x6 | x6 | x6 | x6 | x6 | x6 | x6 | x6 | x6 | x6 || x6 | x6 | %311
 x6 | x6 | x6 | x6 | x6 | x6 | x6 | x6 | x6 | x6 | x6 | x6 | x6 | x6 | x6 | x6 | x6 | x6 | x6 | %330
 x6 | x6 | x6 || x6 | x6 | x6 | x6 | x6 | x6 |: x6 | x6 | x6 | x6 | x6 | x6 | x6 | x6 :| A,6 | %348
 A,6 | A,6 | A,6 | E,6 | E,6 | E,6 | E,6 |: A,6 | A,6 | A,6 | D6 | D6 | E,6 | E,6 | E,6 :| x6 | %364
 x6 | x6 | x6 | x6 | x6 | x6 | x6 | x6 | x6 | x6 | x6 | x6 | x6 | x6 |] %378

